X:1
T:Title
%%score { ( 1 3 ) | ( 2 4 ) }
L:1/8
M:3/2
K:Eb
V:1 treble nm="Grand Piano"
V:3 treble 
V:2 bass 
V:4 bass 
V:1
 z4 z2[Q:1/4=144] E2 G2 G2 | G6 E2 G2 [GB]2 | [GB]8 [EAc]2 [EAe]2 | [EGB]8 G2 E2 |[M:3/4] F6 | %5
 E2 G2 G2 |[M:6/4] G6 E2 G2 [EGB]2 | [EAc]6- [EAc]2 [EGB]2 [B,EG]2 | %8
 [B,DF]6- [B,DF]2 [B,DA]2 [A,DG]2 |[M:9/8] [G,E]8- [G,E] |[M:3/4] [Ge]2 [Fd]2 [Fd]2 | %11
[M:6/4] [Fd]6 [Ac]2 [GB]2 [FA]2 | [EG]6- [EG]2 [EA]2 [EA]2 | [Ec]6- [Ec]2 [EB]2 [EG]2 | %14
[M:3/4] [DF]6 | [DF]2 [EG]2 [GB]2 |[M:6/4] [GB]6 [EB]2 [Ec]2 [Ee]2 | [Ee]6- [Ee]2 [Ee]2 [Ec]2 | %18
 B6 z6[Q:1/4=142][Q:1/4=140][Q:1/4=138][Q:1/4=136][Q:1/4=133][Q:1/4=131][Q:1/4=129][Q:1/4=127][Q:1/4=125][Q:1/4=123][Q:1/4=121] | %19
[M:3/4] E6[Q:1/4=119][Q:1/4=116][Q:1/4=114][Q:1/4=112][Q:1/4=110] |] %20
V:2
 z4 z2 [E,G,]2 [E,B,E]2 [E,B,E]2 | [E,B,E]6 [E,G,]2 [E,B,E]2 [E,E]2 | [E,E]8 A,,2 C,2 | %3
 E,8 [E,B,E]2 [G,B,]2 |[M:3/4] [B,D]6 | [E,G,]2 [E,B,E]2 [E,B,E]2 | %6
[M:6/4] [E,B,E]6 [E,G,]2 [E,B,E]2 E,2 | A,,6- A,,2 E,2 E,2 | B,,6- B,,2 B,,2 B,,2 | %9
[M:9/8] E,8- E, |[M:3/4] [E,B,]2 [B,,B,]2 [B,,B,]2 |[M:6/4] [B,,B,]6 [B,,B,]2 [B,,B,]2 [B,,B,]2 | %12
 [E,B,]6- [E,B,]2 [C,A,]2 [C,A,]2 | [A,,A,]6- [A,,A,]2 [E,G,]2 [E,B,]2 |[M:3/4] [B,,B,]6 | %15
 [B,,B,]2 [E,B,]2 [E,E]2 |[M:6/4] [E,E]6 [E,G,]2 [A,,A,]2 [A,,C]2 | %17
 [A,,C]6- [A,,C]2 [A,,C]2 [A,,A,]2 | G,6 z2 [B,,B,]2 [B,,A,]2 |[M:3/4] [E,G,]6 |] %20
V:3
 x12 | x12 | x12 | x12 |[M:3/4] x6 | x6 |[M:6/4] x12 | x12 | x12 |[M:9/8] x9 |[M:3/4] x6 | %11
[M:6/4] x12 | x12 | x12 |[M:3/4] x6 | x6 |[M:6/4] x12 | x12 | E6- [B,EG]2 [EG]2 [DF]2 | %19
[M:3/4] x6 |] %20
V:4
 x12 | x12 | x12 | x12 |[M:3/4] x6 | x6 |[M:6/4] x12 | x12 | x12 |[M:9/8] x9 |[M:3/4] x6 | %11
[M:6/4] x12 | x12 | x12 |[M:3/4] x6 | x6 |[M:6/4] x12 | x12 | .B,,12 |[M:3/4] x6 |] %20

